X:2715
T:Jig
M:6/8
O:Ireland
R:Jig
Z:Richard Robinson 
%%TUNEURL: http://www.leeds.ac.uk/music/Info/RRTuneBk/gettune/00000718.html
%%ID:00000718
K:D mixolydian
D|\
DFA BFA|Bcd AFA|DFA BFA|B2c d2D|\
DFA BFA|Bcd AFA|fed edc|B2c d2::
A|\
d2f g2f|e2B B2d|c2e efd|c2A ABc|\
d2f g2f|e2B B2d|cec ABc|d3 d2:|
